X:59
T: Schfer, sag, wo ist deine Herde (Band 1), S. 175
N: P0834
O: Lothringen
S: PINCK, Louis: Verklingende Weisen, Bd 1, Metz 1928]
R: Arbeits-, Berufslied]
M: 4/4
L: 1/16
K: F
C2D2E2 | F6F2F2A2c3A | A4G4z4
C2C2E2 | G6G2G2B2d2B2 | B4A4z2
A2c2c2 | c2c2d3cc2B2
G2A2 | BGG2B2G2G2G2A2c2 | F4
F2D2D2C2F2D2 | C4F3GA2A2G2G2 | F8z4

